X:3
T:God Rest Ye Merry, Gentlemen
C:English Traditional
L:1/4
M:4/4
Q:1/4=120
V:S
%%MIDI program 1 19 #Church Organ
V:A
%%MIDI program 2 60 #French Horn
V:T clef=treble_8
%%MIDI program 3 57 #Trombone
%%score (S A) T
K:Cminor
[V:S]
C | C G G F | E D C B, | C D E F | G3 C |
C G G F | E D C B, | C D E F | G2z G |
A F G A | B c G F | E C D E | F2"^Chorus" (E F) |
G2 A G | (G F) E D | C2 E/2 D/2 C | F2 (E F) | (G A) B c | (G F) E D | C3|]
%
[V:A] C | C E D ^B, | C =B, A, G, | C ^B, C C | ^B,3 C |C E D ^B, | C =B, A, G, | C ^B, C C | ^B,2z C | C B, B, E | =D C B, ^B, | C ^A, B, E | D2 (E B,) | B,2 C B, | (E D) C ^B, | C2 G,/2 G,/2 ^A, | B,2 (C D) | E2 E E | (E D) C ^B, | C3|]
%
w:1~God rest you mer- ry, gen- tle men, Let noth- ing you dis- may. For Je- sus Christ our Sa_viour, Was born on Christ- mas Day; To save us all from Sa- tan's power When we were gone a- stray, O_ tid- ings of com-_ fort and joy, com- fort and joy, O_ tid-ings of com-_ fort and joy.
w:2~From God our Hea-venly Fa_ther A bles-sed An-gel came And un-to cer-tain Shep_herds Brought ti-dings of the same How that in Beth-le-hem was born The Son of God by Name ************************
w:3~"Fear not then", said the An_gel "Let no-thing you af-fright This day is born a Sa_viour Of a pure Vir-gin bright To free all those who trust in Him From Sa-tan's power and might" ************************
w:4~Now to the Lord sing prai_ses All you with-in this place And with true love and bro-ther-hood Each oth-er now em-brace This ho-ly tide of Christ_mas All oth-er doth de-face ************************
%
[V:T]
C, | E, C, D, G, | G, G, E, E, | E, G, G, C, | D,3 C, |
E, C, D, G, | G, G, E, E, | E, G, G, C, | D,2z ^E, |
F, F, E, E, | E, E, E, D, | E, E, F, B, | (B, A,) (G, F,) |
E,2 E, E, | (B, A,) G, G, | E,2 E,/2 E,/2 E, | (D, F,) (B, A,) | (G, E,) B, A, | (B, A,) G, G, | E,3 |]

%%abc-version 2.0
%%continueall true
%%titletrim true
%%titleformat A-1 T C1, Z-1, S-1
